X: 091
T: Miss Colt of Seacliff's Strathspey
R: strathspey
Q: "Slow"
B: William Shepherd "1st Collection" 1793 p.9 #1
F: http://imslp.org/wiki/File:PMLP73094-Shepherd_Collections_HMT.pdf
C: William Shepherd (17??-1812)
Z: 2012 John Chambers <jc:trillian.mit.edu>
M: C
L: 1/16
K: Em
e2 |\
EE3E3B, TE3F (AG).F.E | DD3F3d DEFG ABcd |\
EE3E3B, TE3F (AG).F.E | D3F AFdF {F}E4 E2 :|
B2 |\
e3Be3f {ef}g2fe d3B | A3Fd3TF D2FG A3F |\
e3Be3f {ef}g3ed3B | D3Fd3TF {F}E4 E2 ||
B2 |\
e3Be3f {ef}g2fe d3B | A3Fd3TF D2FG A3F |\
E3B, E2FG F3AG3B | D3F AFdF {F}E4 E2 |]
